packages/astro-components-stencil/src/icons/vertical-align-center.svg

<svg xmlns="http://www.w3.org/2000/svg" viewBox="0 0 24 24"><g xmlns="http://www.w3.org/2000/svg" id="vertical-align-center" fill-rule="nonzero">
            <path d="M9.21 19H11v3c0 .55.45 1 1 1s1-.45 1-1v-3h1.79c.45 0 .67-.54.35-.85l-2.79-2.79c-.2-.2-.51-.2-.71 0l-2.79 2.79a.5.5 0 00.36.85zm5.58-14H13V2c0-.55-.45-1-1-1s-1 .45-1 1v3H9.21a.5.5 0 00-.36.85l2.79 2.79c.2.2.51.2.71 0l2.79-2.79c.32-.31.1-.85-.35-.85zM4 12c0 .55.45 1 1 1h14c.55 0 1-.45 1-1s-.45-1-1-1H5c-.55 0-1 .45-1 1z"/>
        </g></svg>

<svg width="24" height="24" viewBox="0 0 24 24" fill="none" xmlns="http://www.w3.org/2000/svg">
<path fill-rule="evenodd" clip-rule="evenodd" d="M14.79 5H13V2C13 1.45 12.55 1 12 1C11.45 1 11 1.45 11 2V5H9.21C8.76 5 8.54 5.54 8.85 5.85L11.64 8.64C11.84 8.84 12.15 8.84 12.35 8.64L15.14 5.85C15.46 5.54 15.24 5 14.79 5ZM9.21 19H11V22C11 22.55 11.45 23 12 23C12.55 23 13 22.55 13 22V19H14.79C15.24 19 15.46 18.46 15.14 18.15L12.35 15.36C12.15 15.16 11.84 15.16 11.64 15.36L8.85 18.15C8.54 18.46 8.76 19 9.21 19ZM5 13C4.45 13 4 12.55 4 12C4 11.45 4.45 11 5 11H19C19.55 11 20 11.45 20 12C20 12.55 19.55 13 19 13H5Z" fill="black"/>
</svg>
